!!!COM:	de Orto, Marbrianus
!!!CDT:	~1460///-1529//
!!!OPR:	Missa J'ay pris amours
!!!ONM:	3
!!!OTL:	Credo
!!!AGN:	Mass; Credo
!!!SCT:	Ort1002c.b
!!!SCA:	Ort1002c.b
!!!voices-OPR:	4
!!!voices:	4
**kern	**kern	**kern	**kern
*staff4	*staff3	*staff2	*staff1
*Ivox	*Ivox	*Ivox	*Ivox
*I"Bassus	*I"Tenor	*I"Altus	*I"Discantus
*I'B	*I'T	*I'A	*I'D
*>[A,B,C,D]	*>[A,B,C,D]	*>[A,B,C,D]	*>[A,B,C,D]
*>A	*>A	*>A	*>A
*clefF4	*clefGv2	*clefGv2	*clefG2
*k[]	*k[]	*k[]	*k[]
*M3/1	*M3/1	*M3/1	*M3/1
*met(O)	*met(O)	*met(O)	*met(O)
!!section: Patrem
!!!OMD: Patrem
=1-	=1-	=1-	=1-
0.r	1A	1e	0.a
.	1D	1f	.
.	1A	1e	.
=2	=2	=2	=2
0.r	2A/	1e	1cc
.	2A/	.	.
.	1.A	2.c\	0cc
.	.	4d\	.
.	.	1e	.
.	2c\	.	.
=3	=3	=3	=3
1r	1G	1d	0.b
1E	1r	1e	.
1G	1B	1d	.
=4	=4	=4	=4
1A	2c\	1r	0.e
.	2c\	.	.
2A\	2c\	1r	.
2G\	2B\	.	.
1A	2A/	2c\	.
.	2c\	2c\	.
=5	=5	=5	=5
1G	1B	2d\	1r
.	.	2d\	.
1E	2r	1e	1g
.	2E/	.	.
1r	2F/	2d\	1a
.	[2A/	2c\	.
=6	=6	=6	=6
2E\	2A/]	1B	1b
2E\	2G/	.	.
2A\	2F/	1A	1cc
2A\	2c\	.	.
1G	2d\	2r	2b\
.	2B\	2e\	2g/
=7	=7	=7	=7
2F\	0c	1f	1a
2F\	.	.	.
1C	.	1e	1g
1F	1A	1c	1r
=8	=8	=8	=8
1r	1G	1d	1b
1C	1r	1e	1cc
2G\	1r	2d\	1dd
2B\	.	[2d\	.
=9	=9	=9	=9
1A	1r	2d\]	1ee
.	.	2c\	.
2r	2G/	2d\	2dd\
2G\	2d\	2g\	2b\
[1A	2.c\	1e	2cc\
.	.	.	[2a/
.	4d\	.	.
=10	=10	=10	=10
2A\]	1e	2c\	2a/]
2E\	.	2g\	2b\
2F\	2c\	1f	2a/
2D\	2d\	.	4g/
.	.	.	4f/
1E	1B	1e	2g/
.	.	.	4f/
.	.	.	4g/
=11	=11	=11	=11
2r	1A	2c\	0.a
2A\	.	2c\	.
1D	1r	1d	.
1A	2c\	1e	.
.	2c\	.	.
=12	=12	=12	=12
1r	2d\	2d\	0.r
.	2e\	2c\	.
1G	2.d\	1B	.
.	4c\	.	.
2.d\	1B	1r	.
4c\	.	.	.
=13	=13	=13	=13
1A	2c\	1e	0a
.	2c\	.	.
1D	2.d\	2.f\	.
.	4c\	8e\L	.
.	.	8d\J	.
2r	1A	2e\	1cc
2A\	.	2f\	.
=14	=14	=14	=14
2d\	1G	1g	0.b
2d\	.	.	.
2e\	1G	2.g\	.
1d	.	.	.
.	.	4g\	.
.	2G/	2g\	.
2B\	2G/	2g\	.
=15	=15	=15	=15
1c	1C	1e	1g
2.F\	1c	1f	0a
4E\	.	.	.
2C/	1r	2e\	.
2D\	.	[2d\	.
=16	=16	=16	=16
2E\	1r	4d\]	0.g
.	.	4c\	.
2C/	.	1c	.
1G	1d	.	.
.	.	2B\	.
2C/	2c\	2c\	.
2c\	2e\	2g\	.
=17	=17	=17	=17
2A\	2e\	1.a	0cc
2F\	2f\	.	.
1A	2e\	.	.
.	2c\	2f\	.
1G	1d	1g	1b
=18	=18	=18	=18
1C	0c	2.e\	0.cc
.	.	4f\	.
1r	.	1g	.
2C/	1r	1e	.
2C/	.	.	.
=19	=19	=19	=19
1G	2E/	2r	0.r
.	2E/	1B	.
1E	1G	.	.
.	.	2B\	.
1G	1E	1B	.
=20	=20	=20	=20
2.A\	2r	1e	0.cc
.	2.A/	.	.
4G\	.	.	.
2.F\	.	1f	.
.	4B\	.	.
.	2.c\	.	.
8E\L	.	.	.
8D\J	.	.	.
1C	.	1e	.
.	4B\	.	.
.	[2G/	.	.
=21	=21	=21	=21
1E	2G/]	2e\	1b
.	2G/	2e\	.
1r	2c\	2e\	0g
.	2B\	1d	.
1E	4c\	.	.
.	4B\	.	.
.	4A/	2c#i\	.
.	4G/	.	.
=22	=22	=22	=22
1D	2F/	1d	0a
.	2D/	.	.
2F\	1r	2c\	.
2F\	.	2d\	.
1E	4B\	1e	1g
.	4B\	.	.
.	4B\	.	.
.	4B\	.	.
=23	=23	=23	=23
2C/	1c	2r	0.e
2C/	.	2c\	.
1C	2r	2A/	.
.	2c\	2G/	.
2r	2A/	2c\	.
2E\	2G/	2B\	.
=24	=24	=24	=24
2F\	2c\	1A	0.a
4F\	2c\	.	.
4F\	.	.	.
2F\	1A	2d\	.
2F\	.	2c\	.
2F\	1r	1d	.
2F\	.	.	.
=25	=25	=25	=25
2E\	1r	1e	1g
2E\	.	.	.
2D\	2d\	1f	1a
2A\	2c\	.	.
2G\	1d	2g\	1b
2G\	.	2G/	.
=26	=26	=26	=26
1E	1e	2B\	0.g#
.	.	2c\	.
1r	1E	2B\	.
.	.	4B\	.
.	.	4B\	.
1r	2E/	2B\	.
.	2E/	2c\	.
=27	=27	=27	=27
2.G\	1E	2B\	1r
.	.	2G/	.
4G\	.	.	.
2G\	2C/	1r	1r
2A\	2r	.	.
2G\	4B\	1r	[1g
.	4B\	.	.
2E\	2B\	.	.
=28	=28	=28	=28
2r	2c\	1r	1g]
2E\	2B\	.	.
2F\	1A	2c\	1.a
2F\	.	2c\	.
2F\	1r	2d\	.
2E\	.	2e\	2g/
=29	=29	=29	=29
2D\	0.r	2A/	2f/
1G	.	1B	2e/
.	.	.	0e
2.A\	.	2.c\	.
4G\	.	4B\	.
2E\	.	[2B\	.
=30	=30	=30	=30
1F	1r	2B\]	1d
.	.	2A/	.
1E	1B	2.G#/	0e
.	.	4F#i/	.
1r	1c	1A	.
=31	=31	=31	=31
2.G\	1B	1d	1r
4A\	.	.	.
2B\	2.G/	2d\	1b
2E\	.	2.g\	.
.	4A/	.	.
2.E\	2B\	.	1b
.	.	4g\	.
.	2G/	[2g\	.
4F\	.	.	.
=32	=32	=32	=32
1G	1d	2g\]	1b
.	.	1g	.
2.C/	2.c\	.	1cc
.	.	1e	.
4D\	8B/L	.	.
.	8A/J	.	.
2E\	2G/	.	2b\
2F\	2A/	2d\	2a/
=33	=33	=33	=33
1E	1B	0.e	1g
1r	1A	.	1a
1r	1E	.	1b
=34	=34	=34	=34
2.E\	1r	0.r	1.g
4F\	.	.	.
1G	1B	.	.
.	.	.	4f#i/
.	.	.	4e/
1A	1c	.	1f#i
=35	=35	=35	=35
2.G\	1d	1B	0g
4F\	.	.	.
1E	2e\	1c	.
.	1c	.	.
1D	.	1d	1r
.	2B\	.	.
=36	=36	=36	=36
1C	1c	1e	1e
1D	1A	2.d\	1f
.	.	4c\	.
1r	1E	1B	2g/
.	.	.	2g/
=37	=37	=37	=37
0.r	1F	1A	2a/
.	.	.	2a/
.	2G/	2B\	1e
.	2A/	2c\	.
.	2G/	1d	1r
.	2F/	.	.
=38	=38	=38	=38
0.r	1E	1e	1g
.	2F/	2.d\	1a
.	2D/	.	.
.	.	4c\	.
.	2.E/	1B	1g
.	4F/	.	.
=39	=39	=39	=39
2.C/	2G/	1e	1cc
.	2A/	.	.
4D\	.	.	.
4E\	1G	2e\	2cc\
4F\	.	.	.
2G\	.	1d	2b\
1F	2r	.	1a
.	2A/	2d\	.
=40	=40	=40	=40
1E	2B\	1e	1g
.	2c\	.	.
2F\	2A/	2c\	1cc
2C/	[2e\	1g	.
1E	4e\]	.	2b\
.	4d\	.	.
.	[2c\	2e\	[2ee\
=41	=41	=41	=41
2C/	2c\]	2.g\	2ee\]
1G	1B	.	2dd\
.	.	4f\	.
.	.	2d\	1b
2E\	2.e\	2g\	.
1A	.	1e	1cc
.	4d\	.	.
.	2c\	.	.
=42	=42	=42	=42
2r	2.d\	2.f\	1.a
2D\	.	.	.
.	4c\	4e\	.
1F	1A	2c\	.
.	.	2d\	4g#i/
.	.	.	4f#i/
1E	1B	[1el	1g#i
=43	=43	=43	=43
0.Al	0.Al	0.e]	0.al
!!LO:LB:i:g=z
=44||	=44||	=44||	=44||
*>B	*>B	*>B	*>B
*clefF4	*clefGv2	*clefGv2	*clefG2
*k[]	*k[]	*k[]	*k[]
*M2/1	*M2/1	*M2/1	*M2/1
*met(C|)	*met(C|)	*met(C|)	*met(C|)
!!section: Et incarnatus est
!!!OMD: Et incarnatus est
0A	0r	1A	0r
.	.	2A/	.
.	.	[2c\	.
=45	=45	=45	=45
1A	0r	4c\]	0r
.	.	4d\	.
.	.	2e\	.
1A	.	2f\	.
.	.	[2e\	.
=46	=46	=46	=46
0G	0r	4e\]	0r
.	.	4d\	.
.	.	2c\	.
.	.	1B	.
=47	=47	=47	=47
0A	1A	1A	1e
.	2c\	1r	2e/
.	2c\	.	2f/
=48	=48	=48	=48
0E	2B\	2.e\	2.g/
.	2B\	.	.
.	.	4f\	4a/
.	1G	2g\	2b\
.	.	[2e\	[2cc\
=49	=49	=49	=49
0r	2r	2e\]	2cc\]
.	1A	2f\	4b\
.	.	.	4a/
.	.	4g\	1b
.	.	4f\	.
.	2G#i/	4e\	.
.	.	4d\	.
=50	=50	=50	=50
0A	1A	1c	2.a/
.	.	.	4g/
.	2r	2r	1e
.	[2c\	[2A/	.
=51	=51	=51	=51
1A	4c\]	4A/]	1r
.	4d\	4B\	.
.	1e	4c\	.
.	.	4d\	.
1A	.	2e\	[1cc
.	4d\	2f\	.
.	4c\	.	.
=52	=52	=52	=52
0G	1d	1g	2cc\]
.	.	.	4b\
.	.	.	4a/
.	1d	1g	1b
=53	=53	=53	=53
0A	2.c\	1r	1e
.	4B\	.	.
.	2c\	[1e	[1cc
.	[2A/	.	.
=54	=54	=54	=54
0E	2A/]	1e]	2cc\]
.	4G#i/	.	4b\
.	4F#i/	.	4a/
.	1G#i	1e	1b
=55	=55	=55	=55
0r	2.A/	2.c\	1e
.	4G/	4B\	.
.	1E	1c	2r
.	.	.	[2g/
=56	=56	=56	=56
0A	1D	0d	2g/]
.	.	.	4f/
.	.	.	4e/
.	1D	.	1f
=57	=57	=57	=57
0c	2.A/	0r	1e
.	4G/	.	.
.	2E/	.	2r
.	2F/	.	[2a/
=58	=58	=58	=58
0B	1G	1d	2a/]
.	.	.	4g/
.	.	.	4f/
.	1E	2.e\	1g
.	.	4d\	.
=59	=59	=59	=59
0E	1G	2c\	2r
.	.	2.B\	1g
.	2r	.	.
.	.	4G/	.
.	[2c\	2c\	4f/
.	.	.	4e/
=60	=60	=60	=60
1r	2c\]	1d	1f
.	2B\	.	.
1C	2c\	1g	1e
.	2e\	.	.
=61	=61	=61	=61
1D	1d	1f	2r
.	.	.	1a
1E	1B	2e\	.
.	.	[2e\	2g/
=62	=62	=62	=62
1F	2r	2e\]	1a
.	2A/	2d\	.
2E\	2B\	1e	2r
2C/	[2c\	.	2e/
=63	=63	=63	=63
1D	2c\]	2r	1f
.	2B\	2d\	.
1C	2c\	1e	1g
.	2e\	.	.
=64	=64	=64	=64
1r	1d	1f	1a
1E	2B\	1g	1g
.	[2c\	.	.
=65	=65	=65	=65
1F	2c\]	1a	1cc
.	2A/	.	.
1G	2d\	1g	2b\
.	[2c\	.	[2ee\
=66	=66	=66	=66
2A\	2c\]	2e\	2ee\]
1F	2d\	1f	2dd\
.	2A/	.	2cc\
2G\	2B\	2d\	[2b\
=67	=67	=67	=67
2F\	2c\	1f	4b\]
.	.	.	4a/
2D\	2d\	.	1a
1E	1B	[1el	.
.	.	.	2g#i/
=68	=68	=68	=68
0AAl	0Al	0e]	0al
!!LO:LB:i:g=z
=69||	=69||	=69||	=69||
*>C	*>C	*>C	*>C
*clefF4	*clefGv2	*clefGv2	*clefG2
*k[]	*k[]	*k[]	*k[]
*M2/1	*M2/1	*M2/1	*M2/1
*met(C|)	*met(C|)	*met(C|)	*met(C)
!!section: Crucifixus
!!!OMD: Crucifixus
*	*	*	*rscale:1/2
1r	1A	1e	[y0a
1D	1d	1f	.
=70	=70	=70	=70-
1A	1c	1e	0a]yy
1A	1A	1c	.
=71	=71	=71	=71
1D	2F/	1r	0a
.	2F/	.	.
2D\	1A	2d\	.
2D\	.	2d\	.
=72	=72	=72	=72-
2F\	2r	2c\	0a
2F\	2A/	2c\	.
1F	1A	1d	.
=73	=73	=73	=73
2E\	2B\	2e\	[y0g
2E\	2B\	2e\	.
2E\	2c\	2.e\	.
2E\	2c\	.	.
.	.	4e\	.
=74	=74	=74	=74-
2E\	2B\	2e\	0g]yy
2E\	2A/	2e\	.
1E	1B	1e	.
=75	=75	=75	=75
1AA	0A	1c	[y0a
1r	.	1e	.
=76	=76	=76	=76-
1D	1F	1f	0a]yy
[1A	[1c	1e	.
=77	=77	=77	=77
2A\]	2c\]	1c	[y0e
4G\	4B\	.	.
4F\	4A/	.	.
2E\	2G/	2r	.
[2G\	2C/	[2g\	.
=78	=78	=78	=78-
2G\]	0r	4g\]	0e]yy
.	.	4f\	.
2F\	.	4e\	.
.	.	4d\	.
1E	.	2.c#i\	.
.	.	4B\	.
=79	=79	=79	=79
0D	1A	0d	0r
.	1B	.	.
=80	=80	=80	=80-
1r	1c	0r	0g
1E	1B	.	.
=81	=81	=81	=81
1F	1A	1c	0a
1A	1r	2c\	.
.	.	2c\	.
=82	=82	=82	=82-
1G	1r	1d	0b
1E	1G	[1e	.
=83	=83	=83	=83
1r	2A/	1e]	0cc
.	2A/	.	.
1F	1A	1r	.
=84	=84	=84	=84-
2G\	1E	1r	1b
2G\	.	.	.
1E	1c	1e	1g
=85	=85	=85	=85
0D	0d	0f	0a
=86	=86	=86	=86-
0E	0B	0e	0g
=87	=87	=87	=87
0F	0A	1c	0r
.	.	1d	.
=88	=88	=88	=88-
0E	1G	2r	0b
.	.	2.e\	.
.	1G	.	.
.	.	4f\	.
.	.	[2g\	.
=89	=89	=89	=89
0r	2C/	2g\]	0cc
.	1F	1a	.
.	2E/	2g\	.
=90	=90	=90	=90-
0r	1D	2.f\	0dd
.	.	4e\	.
.	1r	1f	.
=91	=91	=91	=91
0r	0r	1e	1ee
.	.	2f\	[y1cc
.	.	[2e\	.
=92	=92	=92	=92-
0r	0r	2e\]	1cc]yy
.	.	4d\	.
.	.	4c\	.
.	.	1B	1dd
=93	=93	=93	=93
0r	0r	2.A/	1cc
.	.	4B\	.
.	.	2c\	1a
.	.	[2d\	.
=94	=94	=94	=94-
1r	0r	4d\]	0b
.	.	4c\	.
.	.	4B\	.
.	.	4A/	.
1E	.	1G#i	.
=95	=95	=95	=95
1.F	1r	0A	[0a
.	1A	.	.
2G\	.	.	.
=96	=96	=96	=96-
1A	1c	0r	0a_
1D	1d	.	.
=97	=97	=97	=97
1F	2c\	1r	0a]
.	2A/	.	.
1F	1d	1A	.
=98	=98	=98	=98-
0E	0e	1B	0g
.	.	1c	.
=99	=99	=99	=99
1D	0A	1d	[y0f
1F	.	2c\	.
.	.	2A/	.
=100	=100	=100	=100-
0r	0r	1.d	0f]yy
.	.	4c\	.
.	.	4d\	.
=101	=101	=101	=101
1A	1c	0e	[y0e
2G\	2B\	.	.
[2A\	[2c\	.	.
=102	=102	=102	=102-
2A\]	4c\]	1r	0e]yy
.	4B\	.	.
2B\	2G/	.	.
1c	2.A/	1e	.
.	4B\	.	.
=103	=103	=103	=103
1F	1c	1f	0r
2G\	1B	2e\	.
2E\	.	2e\	.
=104	=104	=104	=104-
1A	2.c\	2e\	0ee
.	.	2d\	.
.	4d\	.	.
1r	1A	2d\	.
.	.	2c#i\	.
=105	=105	=105	=105
1D	0r	0d	0ff
[1d	.	.	.
=106	=106	=106	=106-
2d\]	1r	0A	0ee
4c\	.	.	.
4B\	.	.	.
1c	1e	.	.
=107	=107	=107	=107
1A	2f\	0r	[y0cc
.	2e\	.	.
2A\	2.e\	.	.
2A\	.	.	.
.	4d\	.	.
=108	=108	=108	=108-
1A	2.c\	0r	0cc]yy
.	4d\	.	.
1A	1e	.	.
=109	=109	=109	=109
1D	1d	1A	[y0dd
1D	1A	[1d	.
=110	=110	=110	=110-
2.G\	2B\	2d\]	0dd]yy
.	2B\	2d\	.
4G\	.	.	.
2G\	1d	2B\	.
2G\	.	2B\	.
=111	=111	=111	=111
2A\	2r	1e	[0cc
2A\	2A/	.	.
1F	2A/	1f	.
.	2A/	.	.
=112	=112	=112	=112-
1A	1.c	1.e	0cc_
2G\	.	.	.
2F\	2d\	2f\	.
=113	=113	=113	=113
2E\	2e\	2g\	0cc]
2.F\	2c\	2.a\	.
.	1A	.	.
4G\	.	4g\	.
[2A\	.	[2e\	.
=114	=114	=114	=114-
2A\]	0r	2e\]	0b
4G#i\	.	2f\	.
4F#i\	.	.	.
1G#i	.	1d	.
=115	=115	=115	=115
0A	0r	1c	[y0a
.	.	1e	.
=116	=116	=116	=116-
1r	0r	1f	0a]yy
1A	.	[1e	.
=117	=117	=117	=117
0B	0r	2e\]	0g
.	.	4d\	.
.	.	4c\	.
.	.	1d	.
=118	=118	=118	=118-
1.A	1.c	1e	[0cc
.	.	1e	.
2G\	2B\	.	.
=119	=119	=119	=119
2.F\	1A	1f	0cc]
4G\	.	.	.
1A	[1c	1e	.
=120	=120	=120	=120-
0G	2c\]	1.g	0dd
.	4B\	.	.
.	4A/	.	.
.	1B	.	.
.	.	2f\	.
=121	=121	=121	=121
0C	0c	2.e\	[y0ee
.	.	4d\	.
.	.	2c\	.
.	.	[2g\	.
=122	=122	=122	=122-
0r	1c	4g\]	0ee]yy
.	.	4f\	.
.	.	4e\	.
.	.	4d\	.
.	1A	2.c#i\	.
.	.	4B\	.
=123	=123	=123	=123
1D	0r	1d	[y0a
[1F	.	2A/	.
.	.	2c\	.
=124	=124	=124	=124-
2F\]	0r	1d	0a]yy
2D\	.	.	.
1D	.	1d	.
=125	=125	=125	=125
0A	0r	2.c\	0cc
.	.	4d\	.
.	.	[1e	.
=126	=126	=126	=126-
1E	0r	1e]	0b
2.G\	.	1d	.
4B\	.	.	.
=127	=127	=127	=127
1A	0r	0e	0cc
1A	.	.	.
=128	=128	=128	=128-
0D	1A	0d	0dd
.	1B	.	.
=129	=129	=129	=129
1A	1.c	0r	[y0ee
1A	.	.	.
.	2c\	.	.
=130	=130	=130	=130-
1.A	0c	0r	1ee]yy
.	.	.	2dd\
2A\	.	.	2cc\
=131	=131	=131	=131
1G	1d	0r	[y0b
1E	1e	.	.
=132	=132	=132	=132-
0G	1.d	0r	0b]yy
.	2c\	.	.
=133	=133	=133	=133
0r	1B	1g	[y0e
.	1A	1a	.
=134	=134	=134	=134-
0r	0c	1g	0e]yy
.	.	2f\	.
.	.	[2e\	.
=135	=135	=135	=135
0r	0r	2e\]	0f
.	.	4d\	.
.	.	4c\	.
.	.	1d	.
=136	=136	=136	=136-
1E	1B	1e	0e
1A	1c	1e	.
=137	=137	=137	=137
1D	1d	2f\	0a
.	.	2f\	.
1D	2A/	2e\	.
.	2d\	[2d\	.
=138	=138	=138	=138-
0E	1B	2d\]	0g
.	.	4c#i\	.
.	.	4B\	.
.	1G	1c#i	.
=139	=139	=139	=139
0D	1A	1d	[y0f
.	2r	1A	.
.	[2D/	.	.
=140	=140	=140	=140-
1r	4D/]	1.d	0f]yy
.	4E/	.	.
.	4F/	.	.
.	4G/	.	.
1D	2A/	.	.
.	2B\	4c\	.
.	.	4d\	.
=141	=141	=141	=141
1A	1c	1e	[0e
2.E\	1B	1g	.
4F\	.	.	.
=142	=142	=142	=142-
2G\	2r	2.E/	0e_
2A\	1c	.	.
.	.	4F/	.
2E\	.	1G	.
2G\	2B\	.	.
=143	=143	=143	=143
2A\	2c\	1r	0e_
2G\	2B\	.	.
2.c\	1A	2r	.
.	.	2A/	.
4B\	.	.	.
=144	=144	=144	=144-
2A\	1r	2c\	0e]
2G\	.	2B\	.
2r	2r	1A	.
2c\	2A/	.	.
=145	=145	=145	=145
2d\	2G/	2B\	1r
2A\	2F/	2d\	.
1B	1E	1e	1g
=146	=146	=146	=146-
2A\	2F/	2c\	1a
2F\	1A	2d\	.
1E	.	1e	1b
.	2G/	.	.
=147	=147	=147	=147
2r	1A	1c	2cc\
2A\	.	.	2cc\
2G\	2r	1d	2b\
2F\	2A/	.	2a/
=148	=148	=148	=148-
1E	2B\	1e	1g
.	2c\	.	.
2r	1d	2r	2b\
2G\	.	2B\	2b\
=149	=149	=149	=149
2.F\	2r	2c\	2a/
.	2A/	2.d\	2a/
4E\	.	.	.
1D	2d\	.	1a
.	.	4e\	.
.	2d\	2f\	.
=150	=150	=150	=150-
2r	2B\	1e	0g
2.E\	2c\	.	.
.	2B\	2r	.
4F\	.	.	.
2G\	[2e\	2B\	.
=151	=151	=151	=151
2A\	4e\]	2.c\	1r
.	4d\	.	.
2E\	4c\	.	.
.	4B\	4d\	.
2r	1c	2e\	1e
[2A\	.	2A/	.
=152	=152	=152	=152-
4A\]	1A	2c\	2f/
4G\	.	.	.
2F\	.	2d\	2f/
1E	1B	1e	2g/
.	.	.	2g/
=153	=153	=153	=153
1F	2.A/	1c	1a
.	4G/	.	.
2r	2A/	2.c\	1e
[2A\	[2c\	.	.
.	.	4d\	.
=154	=154	=154	=154-
4A\]	2c\]	2e\	1r
4G\	.	.	.
2F\	2A/	2d\	.
1E	2B\	2e\	1g
.	2c\	[2g\	.
=155	=155	=155	=155
1D	1d	2g\]	1a
.	.	2f#i\	.
2r	1B	1g	1g
[2G\	.	.	.
=156	=156	=156	=156-
2G\]	1r	1e	1.cc
1A	.	.	.
.	2A/	1r	.
2G\	2B\	.	2b\
=157	=157	=157	=157
1F	2c\	2r	1a
.	2d\	2A/	.
1E	1e	1B	1g
=158	=158	=158	=158-
2r	1A	1e	1cc
2A\	.	.	.
1G	1B	2r	1dd
.	.	2d\	.
=159	=159	=159	=159
0F	2c\	1f	0a
.	2.d\	.	.
.	.	1d	.
.	4c\	.	.
.	4B\	.	.
.	4A/	.	.
=160	=160	=160	=160-
0E	2.G#i/	2e\	0b
.	.	2.g\	.
.	4A/	.	.
.	2.G#i/	.	.
.	.	4f\	.
.	.	4e\	.
.	8F#i/L	4d\	.
.	8G#i/J	.	.
=161	=161	=161	=161
0AAl	0Al	2.c\	0al
.	.	4d\	.
.	.	1el	.
*	*	*	*rscale:1
!!LO:LB:i:g=z
=162||	=162||	=162||	=162||
*>D	*>D	*>D	*>D
*clefF4	*clefGv2	*clefGv2	*clefG2
*k[]	*k[]	*k[]	*k[]
*M3/1	*M3/1	*M3/1	*M3/1
*met(O|)	*met(O|)	*met(O|)	*met(O|)
!!section: Et unam sanctam
!!!OMD: Et unam sanctam
1D	0.A	1r	0.r
1D	.	1A	.
[1F	.	1A	.
=163	=163	=163	=163
2F\]	1A	1c	1a
2E\	.	.	.
1D	0A	1d	1a
1C	.	[1e	[1cc
=164	=164	=164	=164
1C	0.G	2e\]	1cc]
.	.	2f\	.
1E	.	2g\	0b
.	.	2f\	.
1E	.	2e\	.
.	.	2d\	.
=165	=165	=165	=165
1.F	0.A	1c	0a
.	.	1f	.
2G\	.	.	.
1A	.	[1e	1cc
=166	=166	=166	=166
1.G	0E	1e]	1.b
.	.	1.g	.
2F\	.	.	2a/
2E\	1r	.	1g
2D\	.	2f\	.
=167	=167	=167	=167
1C	1G	2e\	1r
.	.	2d\	.
1F	1A	2c\	1c
.	.	2d\	.
1E	1B	[1e	1g
=168	=168	=168	=168
0.r	1c	2e\]	1a
.	.	2f\	.
.	2B\	1g	1b
.	2G/	.	.
.	1A	1f	1cc
=169	=169	=169	=169
1G	1G	0g	1dd
1C	1r	.	1ee
1G	1B	1g	[1dd
=170	=170	=170	=170
1A	1c	1f	2dd\]
.	.	.	2cc\
1G	1d	1g	2b\
.	.	.	2a/
1E	2e\	2r	1g
.	[2c\	[2e\	.
=171	=171	=171	=171
1F	2c\]	2e\]	1.a
.	2d\	2d\	.
0E	2c\	0e	.
.	2A/	.	4g#i/
.	.	.	4f#i/
.	1B	.	1g#i
=172	=172	=172	=172
0F	0.A	1r	0a
.	.	1A	.
1r	.	1c	1r
=173	=173	=173	=173
0.r	1G	1d	0.r
.	[0F	1d	.
.	.	1c	.
=174	=174	=174	=174
1A	1F]	1d	0.r
1B	0E	0e	.
1c	.	.	.
=175	=175	=175	=175
0G	1r	1d	1r
.	1e	1B	1r
1F	1f	1c	1a
=176	=176	=176	=176
1.A	1e	1r	1a
.	[0c	1r	1a
2G\	.	.	.
[1E	.	[1G	1g
=177	=177	=177	=177
1E]	1c]	1G]	0g
0D	[0d	0A	.
.	.	.	1f#i
=178	=178	=178	=178
1G	1d]	1G	1g
0A	0c	1c	0e
.	.	1A	.
=179	=179	=179	=179
1A	1c	0e	0a
0E	0B	.	.
.	.	1e	1g#i
=180	=180	=180	=180
0.r	0A	1.e	1a
.	.	.	1cc
.	.	2d\	.
.	1G	1B	1dd
=181	=181	=181	=181
0.r	0c	1A	1ee
.	.	1e	0a
.	1d	1f	.
=182	=182	=182	=182
0.r	0.e	1e	1cc
.	.	1.g	0b
.	.	4f\	.
.	.	4g\	.
=183	=183	=183	=183
1.F	0.A	1.a	1a
.	.	.	1cc
2E\	.	2g\	.
1D	.	1f	1dd
=184	=184	=184	=184
1C	1c	1e	1ee
1G	1B	1d	1r
1F	1c	[1f	[1a
=185	=185	=185	=185
1D	1d	1f]	2a/]
.	.	.	2b\
1A	1.e	0c	1.cc
1r	.	.	.
.	4d\	.	2b\
.	4c\	.	.
=186	=186	=186	=186
1.E	0.B	1.e	1.g
2F\	.	2d\	2f/
[1G	.	[1B	1d
=187	=187	=187	=187
2G\]	0E	1B]	1r
2A\	.	.	.
1B	.	1e	1g
1A	1F	1d	1a
=188	=188	=188	=188
1B	1E	1e	1g
1c	1A	0c	1f
1C	1G	.	1e
=189	=189	=189	=189
0D	0.F	0.A	1f
.	.	.	1.d
1r	.	.	.
.	.	.	4c/
.	.	.	4d/
=190	=190	=190	=190
1.G	[0.E	0B	0e
2A\	.	.	.
2B\	.	[1e	1e
2c\	.	.	.
=191	=191	=191	=191
1B	0E]	0.e]	0g
1c	.	.	.
1B	1r	.	1g
=192	=192	=192	=192
1E	1G	1e	1g
1F	1A	1c	1f
1G	1B	1B	1d
=193	=193	=193	=193
1C	1c	1G	1e
2G\	2B\	1r	2d/
2F\	2A/	.	1d
1E	1G	1r	.
.	.	.	2c#i/
=194	=194	=194	=194
0D	1B	1d	0d
.	[0A	0f	.
1D	.	.	1d
=195	=195	=195	=195
1D	1A]	1d	1a
0d	0G	0g	1.b-i
.	.	.	2a/
=196	=196	=196	=196
1c	1r	0e	1a
1B	1E	.	1g
1A	1F	[1c	1a
=197	=197	=197	=197
1E	1G	1c]	1g
1D	1A	1d	1f
1E	1E	1B	1g
=198	=198	=198	=198
1D	1r	1r	1a
1.C	1G	1c	1e
.	1A	2e\	[1cc
2D\	.	2f\	.
=199	=199	=199	=199
1E	1G	1g	2cc\]
.	.	.	2b\
1F	1.c	1f	1a
1E	.	1g	1g
.	2B\	.	.
=200	=200	=200	=200
1F	1A	1f	1cc
1G	1G	1d	1b
1F	1c	[1f	[1a
=201	=201	=201	=201
0D	1d	1f]	2a/]
.	.	.	2b\
.	[0A	1.f	2cc\
.	.	.	2dd\
[1F	.	.	1cc
.	.	2e\	.
=202	=202	=202	=202
1F]	1A]	2c\	0a
.	.	2d\	.
0E	0B	0e	.
.	.	.	1g#i
=203	=203	=203	=203
0.AAl	0.Al	0.el	0.al
==	==	==	==
*-	*-	*-	*-
!!!RDF**kern: l=long note in original notation
!!!RDF**kern: i=editorial accidental
!!!ENC:	Jesse Rodin 8/11/2013
!!!END:	2013/08/11/
!!!EED:	Jesse Rodin
!!!EEV:	2013/08/12/
!!!ONB:	Translated from MusicXML and edited on 2013/08/12/ by Craig Sapp
!!muse2ps: T^@{OPR}^u^@{ONM}{. }@{OTL}^C^@{COM}^i2I150v85,85,85,150Q16
